packages/kaspersky-hexa-ui-icons/src/iconsSVGs/64x42/FlagAg.svg

<svg xmlns="http://www.w3.org/2000/svg" width="64" height="42" fill="none" viewBox="0 0 64 42"><g clip-path="url(#a)"><rect width="64" height="42" fill="#fff" rx="5"/><path fill="#e2243b" d="M0 0h64v42H0z"/><path fill="#262626" fill-rule="evenodd" d="M2.6001 0h58.8l-29.4 42z" clip-rule="evenodd"/><mask id="b" width="60" height="42" x="2" y="0" maskUnits="userSpaceOnUse" style="mask-type:luminance"><path fill="#fff" fill-rule="evenodd" d="M2.6001 0h58.8l-29.4 42z" clip-rule="evenodd"/></mask><g fill-rule="evenodd" clip-rule="evenodd" mask="url(#b)"><path fill="#ffcf3c" d="m32 23.1-4.8218 5.3409.3671-7.1861-7.1862.367L25.7 16.8l-6.3-5.6 8.1453 1.4L26.4 4.2l5.6 7 5.6-7-1.1452 8.4L44.6 11.2l-6.3 5.6 5.3409 4.8218-7.1861-.367.367 7.1861z"/><path fill="#1984d8" d="M2.6001 28h58.8V16.8h-58.8z"/><path fill="#fff" d="M2.6001 42h58.8V28h-58.8z"/></g></g><defs><clipPath id="a"><rect width="64" height="42" fill="#fff" rx="5"/></clipPath></defs></svg>

<svg width="64" height="42" viewBox="0 0 64 42" fill="none" xmlns="http://www.w3.org/2000/svg">
<g clip-path="url(#clip0_37941_2182)">
<rect width="64" height="42" rx="5" fill="white"/>
<rect width="64" height="42" fill="#E2243B"/>
<path fill-rule="evenodd" clip-rule="evenodd" d="M2.6001 0H61.4001L32.0001 42L2.6001 0Z" fill="#262626"/>
<mask id="mask0_37941_2182" style="mask-type:luminance" maskUnits="userSpaceOnUse" x="2" y="0" width="60" height="42">
<path fill-rule="evenodd" clip-rule="evenodd" d="M2.6001 0H61.4001L32.0001 42L2.6001 0Z" fill="white"/>
</mask>
<g mask="url(#mask0_37941_2182)">
<path fill-rule="evenodd" clip-rule="evenodd" d="M32 23.1L27.1782 28.4409L27.5453 21.2548L20.3591 21.6218L25.7 16.8L19.4 11.2L27.5453 12.6L26.4 4.20001L32 11.2L37.6 4.20001L36.4548 12.6L44.6 11.2L38.3 16.8L43.6409 21.6218L36.4548 21.2548L36.8218 28.4409L32 23.1Z" fill="#FFCF3C"/>
<path fill-rule="evenodd" clip-rule="evenodd" d="M2.6001 28H61.4001V16.8H2.6001V28Z" fill="#1984D8"/>
<path fill-rule="evenodd" clip-rule="evenodd" d="M2.6001 42H61.4001V28H2.6001V42Z" fill="white"/>
</g>
</g>
<defs>
<clipPath id="clip0_37941_2182">
<rect width="64" height="42" rx="5" fill="white"/>
</clipPath>
</defs>
</svg>
